!!!OTL@@DE: Die Kinder bei der Krippe
!!!COM: Schultz, Joh. Abr. Peter
!!!OMD: Freudig, doch nicht zu geschwind
!!!LYR: Schmid, Christoph von
!!!OCL: Erk, Ludwig
!!!GCO: Deutscher Liederschatz, Band 1
**kern	**kern	**dynam	**kern	**text	**text	**text	**text
*staff3	*staff2	*staff2	*staff1	*staff1	*staff1	*staff1	*staff1
*Ipiano	*Ipiano	*Ipiano	*Ivox	*Ivox	*Ivox	*Ivox	*Ivox
*clefF4	*clefG2	*clefG2	*clefG2	*	*	*	*
*k[b-e-a-]	*k[b-e-a-]	*k[b-e-a-]	*k[b-e-a-]	*	*	*	*
*E-:	*E-:	*E-:	*E-:	*E-:	*E-:	*E-:	*E-:
*M2/4	*M2/4	*M2/4	*M2/4	*	*	*	*
*MM84	*MM84	*MM84	*MM84	*MM84	*MM84	*MM84	*MM84
8r	8g/ 8b-/	mf	8b-\	Ihr	O	Da	O
=1	=1	=1	=1	=1	=1	=1	=1
*	*^	*	*	*	*	*	*
(8EE-/L	4g/ (4b-/	2B-\	.	4b-\	Kin-	seht	liegt	beugt,
8BB-/	.	.	.	.	.	.	.	.
8E-/	8e-/ 8g/L)	.	.	8g/	.	in	es,	wie
8BB-/J)	8g/ 8b-/J	.	.	8b-\	-der-lein,	der	ach	die
=2	=2	=2	=2	=2	=2	=2	=2	=2
(8EE-/L	4g/ (4b-/	2B-\	.	4b-\	kom-	Krip-	Kin-	Hir-
8BB-/	.	.	.	.	.	.	.	.
8E-/	8e-/ 8g/L	.	.	8g/	-met,	-pe	-der,	-ten,
8BB-/J)	8g/ 8b-/J)	.	.	8b-\	o	im	auf	an-
=3	=3	=3	=3	=3	=3	=3	=3	=3
(8BBB-/L	4f/ (4a-/	2B-\	.	4a-/	kom-	nächt-	Heu	be
8BB-/	.	.	.	.	.	.	.	.
8BBB-/	8d/ 8f/L)	.	.	8f/	-met	li	und	-tend
8BB-/J)	8d/ 8f/J	.	.	8f/	doch	-chen	auf	die
*	*v	*v	*	*	*	*	*	*
=4	=4	=4	=4	=4	=4	=4	=4
(8EE-/L	4B-/ 4e-/ 4g/	.	4g/	all!	Stall,	Stroh,	Knie,
8BB-/	.	.	.	.	.	.	.
8E-/	8r	.	8r	.	.	.	.
8BB-/J)	8g/ 8b-/	.	8b-\	zur	seht	Ma-	er-
=5	=5	=5	=5	=5	=5	=5	=5
*	*^	*	*	*	*	*	*
(8EE-/L	4g/ (4b-/	2B-\	.	4b-\	rip-	hier	ri	he
8BB-/	.	.	.	.	.	.	.	.
8E-/	8e-/ 8g/L)	.	.	8g/	-pe	bei	-a	-bet
8BB-/J)	8g/ 8b-/J	.	.	8b-\	her	des	und	die
=6	=6	=6	=6	=6	=6	=6	=6	=6
(8EE-/L	4g/ (4b-/	2B-\	.	4b-\	kom-	Licht-	Jo-	Händ-
8BB-/	.	.	.	.	.	.	.	.
8E-/	8e-/ 8g/L)	.	.	8g/	-met	-leins	-seph	-lein
8BB-/J)	8g/ 8b-/J	.	.	8b-\	in	hell-	be-	und
=7	=7	=7	=7	=7	=7	=7	=7	=7
(8BBB-/L	4f/ (4a-/	2B-\	.	4a-/	Beth-	glän	trach	dan-
8BB-/	.	.	.	.	.	.	.	.
8BBB-/	8d/ 8f/L)	.	.	8f/	le	.	-ten	-ket
8BB-/J)	8d/ 8f/J	.	.	8f/	-hems	-zen-dem	es	wie
*	*v	*v	*	*	*	*	*	*
=8	=8	=8	=8	=8	=8	=8	=8
(8EE-/L	4B-/ 4e-/ 4g/	.	4g/	Stall	Strahl,	froh;	sie!
8BB-/	.	.	.	.	.	.	.
8E-/J)	8r	.	8r	.	.	.	.
8r	8e-/ 8g/	p	8g/	und	in	die	Stimmt
=9	=9	=9	=9	=9	=9	=9	=9
(8BB-\L	4d/ 4f/	.	4f/	seht,	rein-	red-	freu-
8B-\	.	.	.	.	.	.	.
8BB-\J)	8d/ 8f/L	.	8f/	was	li	li	-dig,
8r	8d/ 8f/J	.	8f/	in	-chen	-chen	ihr
=10	=10	=10	=10	=10	=10	=10	=10
(8FF/L	4c/ 4f/ 4a-/	.	4a-/	die-	Win-	Hir-	Kin-
8F/	.	.	.	.	.	.	.
8FF/J)	8c/ 8f/ 8a-/L	.	8a-/	-ser	-deln	-ten	-der,
8r	8c/ 8f/ 8a-/J	.	8a-/	hoch-	das	knien	wer
=11	=11	=11	=11	=11	=11	=11	=11
(8C\L	4e-/ 4g/	.	4g/	hei	himm-	be-	sollt'
8c\	.	.	.	.	.	.	.
8C\J)	8e-/ 8g/L	.	8g/	li	li	-tend	sich
8r	8e-/ 8g/J	.	8g/	-gen	-sche	da-	nicht
=12	=12	=12	=12	=12	=12	=12	=12
8A-\L	4.e-/ 4.a-/ 4.cc/	.	4cc\	Nacht	Kind,	-vor,	freun?
8E-\	.	.	.	.	.	.	.
8C\	.	.	8r	.	.	.	.
8AA-\ 8A-\J	8e-/ 8a-/ 8cc/	.	8cc\	der	viel	hoch	stimmt
=13	=13	=13	=13	=13	=13	=13	=13
*^	*^	*	*	*	*	*	*
(8F/L	4BB-\	4b-/	(8d\L	.	4b-\	Va-	schö-	o-	freu-
8A-/	.	.	8f\)	.	.	.	.	.	.
8G/)	8BB-\L	8b-/L	8e-\	.	8b-\	-er	-ner	-ben	-dig
8F/J	8AA-\J	8b-/J	8d\J	.	8b-\	im	und	schwebt	zum
*	*	*v	*v	*	*	*	*	*	*
=14	=14	=14	=14	=14	=14	=14	=14	=14
4E-/	4GG\	4e-/ 4ee-/	.	4ee-\	.	.	ju-	Ju-
*v	*v	*	*	*	*	*	*	*
8EE-/ 8E-/L	8e-/ 8g/ 8b-/L	.	8b-\	Him-mel	hol-der,	-beind	-bel
8GG/J	8B-/ 8e-/ 8g/J	.	8g/	für	als	der	der
=15	=15	=15	=15	=15	=15	=15	=15
(8FF/L	4c/ 4f/ 4a-/	.	4a-/	Freu-de	En-	En-	En-
8AA-/	.	.	.	.	.	.	.
8BB-/)	8B-/ 8d/ 8f/L	.	8f/	.	-gel	ge	-gel
8BB-/J	8A-/ 8B-/ 8d/J	.	8d/	uns	es	-lein	mit
=16	=16	=16	=16	=16	=16	=16	=16
4EE-/ 4BB-/	4G/ 4B-/ 4e-/	.	4e-/	macht.	sind.	Chor.	ein.
8r	8r	.	8r	.	.	.	.
==	==	==	==	==	==	==	==
*-	*-	*-	*-	*-	*-	*-	*-
!!!ENC: Craig Stuart Sapp
!!!END: 2004/06/28/
!!!EFL: 606/600
